X:1
T:SEPTEMBER MORN
T:SEPTEMBER MORN
T:OTTO H. KRAUSSE.
T:Copyright 1913 by O. H. Krausse.
T:Copyright 1913 by O. H. Krausse.
T:Copyright 1913 by O. H. Krausse.
T:Copyright 1913 by O. H. Krausse.
C:OTTO H. KRAUSSE.
Z:Copyright 1913 by O. H. Krausse.
%%score { ( 1 2 ) | ( 3 4 ) }
L:1/8
Q:1/4=90
M:2/4
K:F
V:1 treble nm="Piano" snm="Pno."
V:2 treble 
V:3 bass 
V:4 bass 
V:1
"^Allo Mod. ." [bd'g']/g/"^This number should be\nplayed in a Rubato tempo\n""^to" [bd'g']- [bd'g']2 | %1
 [bd'g']/g/ [bd'g']- [bd'g']2 |!p! C/!<(!D/E/G/ [FB][EGc]!<)! |!ff! [dg][_dg] [CEGB][cegbc'] |: %4
!p!"^Tempo di Rubato." .[=B,FA]/!<(!.[B,FA]/.[CFA] .[B,FA]/.[B,FA]/.[CFA]!<)! | %5
!f! [^CGB^c][DGBd] [=cegbc']2 |!p! [^CGB]/!<(![CGB]/[DGB] [CGB]/[CGB]/[DGB]!<)! | %7
!f! [EAce][FAcf] [efac'e']2 |!p! [fac'f']/!<(![fac'f']/[dfad'] [fac'f']/[fac'f']/[df_ad']!<)! | %9
 [fbf']!f![dbd'] [Bdgb]2 |!p! .[^Fe^f]/!<(!.[Fef]/.[Geg] .[Fef]/.[Fef]/.[Geg]!<)! | %11
!f! [^Gf^g][Afa] [EAce]2 |!p! .[=B,FA]/!<(!.[B,FA]/.[CFA] .[B,FA]/.[B,FA]/.[CFA]!<)! | %13
!f! [^CGB^c][DGBd] [=cegbc']2 |!p! [^CGB]/[CGB]/[DGB] [CGB]/[CGB]/[DGB] | %15
!f! [EAc][FAc]!ff! [e^g=be'][dgbd'] | [^c^c'][_B_b] [Aa][Ee] | [GAdg][_GAd_g] [FAdf]2 |1 %18
 [EF=Be][DFBd] [^CFB^c][DFBd] | [^D^d][Ee] [cegbc']c/C/ :|2 [EGe][Geg] [Dd][Gg] | %21
 [FBdf][FBdf] [cegbc']2 ||!p!!f! z !fermata![ee']!fermata![dd']!fermata![Aa] |: %23
 [cebc']/z/[EGBe]/ z/ [EGBe]2 | z [Aea] [ceac'][Aea] | [Acfa]/z/[EAce]/ z/ [EAce]2 | %26
 z [GAcg] [F^G=Bf][DFGd] | [FBdf]/z/[B,DGB]/ z/ [B,DGB]2 | z [CEAc] [EAce][CEAc] | %29
 [EAce]/z/[A,CFA]/ z/ [A,CFA]2 | z !fermata![ee'] !fermata![dd']!fermata![Aa] | %31
 [cebc']/z/[EGBe]/ z/ [EGBe]2 | z [B^ceb] [Acea][EAce] | [GAdg]/z/[FAdf]/ z/ [FAdf]2 | %34
 [EAce][FAcf] [e^fae'][dfad'] | [dfgd']/z/[G=Bdg]/ z/ [GBdg]2 | z [DBc][EBce][Aea] |1 %37
 [Acfa]/z/[EAce]/ z/ [EAce]2 | z !fermata![ee']!fermata![dd']!fermata![Aa] :|2 %39
 [EAce][FAcf][Acfa][cfac'] | [fac'f']z[fac'f'] z || %41
[K:Bb]"^TRIO"!p!!f! z/"^Rubato marcato" .D/.F/.G/ .B/.d/.f/.g/ |{dfg} a{dfg}a{dfg}a{ga}g | %43
 z/ .D/.F/.G/ .B/.d/.f/.g/ |{dfg} a{dfg}a{dfg}a{ga}g | %45
 .[eg]/.[dg]/.[ceg]/.[Beg]/ .[Aeg]/z/.[Geg]/ z/ | [^Fce^f][Gceg] [dad'][dac'] | %47
 [^Fce^f][Gceg] [dad'][dac'] | [^cgb^c'][dfbd'] [b_d'a'][bd'g'] | z/ .D/.F/.G/ .B/.d/.f/.g/ | %50
{dfg} a{dfg}a{dfg}a{ga}g | z/ .D/.F/.G/ .B/.d/.f/.g/ | %52
!ff! !tenuto![A^c=ea]!tenuto![Acea]!tenuto![Acea]!tenuto![Aceg] | %53
 z/!<(! .G/.B/.c/ (e/g/)!f![e'g']!<)! | z/!p!!<(! .G/.B/.c/ (e/g/)!f![d'g']!<)! | %55
 z/!p!!<(! G/B/c/ (e/g/)!f![e'g']!<)! | [B,DFB][Bdfb] [bd'f'b'] z :| %57
!ff! z"^Grandioso" [aa'][gg'][dd'] | [fac'e'f']/z/[Acea]/ z/ [Acea]2 | z [dead'] [fae'f'][dead'] | %60
 [dfad']/z/[Adfa]/ z/ [Adfa]2 | z [cdfc'] [B_dfb][GBdg] | [Bceb]/z/[EAce]/ z/ [EAce]2 | %63
 z [Acea] [ceac'][Acea] | [GBdg]/z/[DFBd]/ z/ [DFBd]2 | %65
 z !fermata![aa'] !fermata![gg']!fermata![Bb] | [fac'e'f']/z/[Acea]/ z/ [Acea]2 | %67
 z [e^fae'] [dfad'][Adfa] | [c^fac']/z/[Bdgb]/ z/ [Bdgb]2 | [Adfa][Bdfb] [a=bd'a'][gbd'g'] | %70
 [gbc'g']/z/[c=egc']/ z/ [cegc']2 | z [Gceg] [Aefa][dad'] | %72
!f! [Adfa]!<(![Bdfb][dfbd'][fbd'f']!<)! | [bd'f'b'] z [bd'f'b'] z |] %74
V:2
 e/c/ e- e2 | e/c/ e- e2 | x4 | [FGB][FGB] x2 |: x4 | x4 | x4 | x4 | x4 | x4 | x4 | x4 | x4 | x4 | %14
 x4 | x4 | x4 | x4 |1 x4 | x4 :|2 x4 | x4 || x4 |: x4 | x4 | x4 | x4 | x4 | x4 | x4 | x4 | x4 | %32
 x4 | x4 | x4 | x4 | x4 |1 x4 | x4 :|2 x4 | x4 ||[K:Bb] x4 | x4 | x4 | x4 | x4 | x2 [=FAe][FAe] | %47
 x2 [=FAe][FAe] | x2 [GB_df][GBdf] | x4 | x4 | x4 | x4 | x4 | x4 | x4 | x2 [B,DFB] x :| %57
 x !fermata![A,A]!fermata![G,G] z | x4 | x4 | x4 | x4 | x4 | x4 | x4 | x4 | x4 | x4 | x4 | x4 | %70
 x4 | x4 | x4 | x4 |] %74
V:3
 z4 | z4 | [C,G,B,]4 |"^rit." z2 [C,,C,] C/C,/ |: F,,[C,F,A,] A,,[C,F,A,] | %5
 G,,[C,E,G,B,] C,,[E,G,B,C] | G,,[C,E,G,B,] C,,[C,E,G,B,] | A,,[C,F,A,] C,,[C,F,A,] | %8
 A,,[C,F,A,] _A,,[D,F,_A,=B,] | B,,[G,B,D] G,,[G,B,D] | C,,[C,E,G,B,] E,,[C,E,G,B,] | %11
 A,,[C,F,A,] C,,[C,F,A,] | F,,[C,F,A,] A,,[C,F,A,] | G,,[C,E,G,B,] C,,[E,G,B,C] | %14
 G,,[C,E,G,B,] C,,[C,E,G,B,] | F,,[F,A,C] E,,[E,^G,=B,D] | A,,[G,^CE] C,[G,A,C] | %17
 D,,[D,F,D] [D,,D,][C,,C,] |1 [=B,,,=B,,][F,G,=B,] [G,,,G,,][F,G,B,] | %19
 [C,,C,][C,F,B,] [C,E,G,B,][C,,C,] :|2 C,[G,CE] G,,[F,G,=B,D] | %21
 [G,,,G,,]D[I:staff -1] [CEGB][I:staff +1][C,,C,] || %22
"^-" z !fermata![E,E]!fermata![D,D]!fermata![A,,A,] |: [C,,C,]/z/[C,E,G,B,]/ z/ E,,[C,E,G,B,] | %24
 C,,[C,E,G,B,] E,,[E,G,B,] | [F,,F,][F,A,C] A,,[F,A,C] | F,,[F,A,C] _A,,[_F,_A,=B,] | %27
 G,,[D,G,] D,,[D,G,] | [C,,C,]4 | F,,[C,F,] [C,F,][G,,G,] | %30
 [A,,A,]!fermata![E,E] !fermata![D,D]!fermata![A,,A,] | [C,,C,][G,B,C] E,,[G,B,C] | %32
 A,,[G,^CE] ^C,[G,A,C] | [D,,D,][F,A,D] [F,A,D][C,C] | [=B,,,=B,,][F,A,=B,D] [D,,D,][^F,A,CD] | %35
 G,,[F,G,=B,D] [F,G,B,D][F,,F,] | E,,[C,E,G,B,] C,,[C,E,G,B,] |1 F,,[C,F,A,] [C,F,A,][G,,G,] | %38
 [A,,A,]!fermata![E,E]!fermata![D,D]!fermata![A,,A,] :|2 [A,,A,]F,C,A,, | [F,,F,]z[F,,F,] z || %41
[K:Bb]"^-" B,,"^accel"[F,B,D] F,,[F,B,D] | B,,"^rit."[F,B,D] F,,[F,B,D] | %43
 B,,"^accel"[F,B,D] F,,[F,B,D] | C,"^rit."[F,A,CE] F,,[F,A,CE] |"^accel" C,[F,A,CE] F,,[F,A,CE] | %46
 [C,,C,][F,A,CE]"^ten." x2 | [C,,C,][F,A,CE]"^ten." x2 | [B,,,B,,][F,B,D]"^ten." x2 | %49
 B,,[F,B,D] F,,[F,B,D] | B,,[F,B,D] F,,[F,B,D] | B,,[F,B,D] F,,[F,B,D] | %52
 z"^rit."!ped! [G,A,^CE][G,A,CE][G,A,CE]!ped-up! |"^a tempo" F,,[D,F,A,C][K:treble] z [FAce] | %54
[K:bass] B,,[F,B,D][K:treble] z [FBd] |[K:bass] F,,[F,A,CE][K:treble] z [FAce] | %56
[K:bass] [B,,,B,,][I:staff -1][B,DF][I:staff +1] x z :| z z z !fermata![D,D] | %58
 [C,,C,]/z/[F,A,CE]/ z/ [F,,,F,,][F,A,CE] | A,,[F,A,CE] F,,[F,A,CE] | %60
 [B,,,B,,][F,B,D] [D,,D,][F,B,D] | [B,,,B,,][F,B,D] [_D,,_D,][G,B,_DF] | %62
 F,,[F,A,C] [A,,,A,,][F,A,C] | [F,,,F,,]4 | [B,,,B,,][F,B,D] [F,B,D][C,C] | %65
 [D,D]!fermata![A,A] !fermata![G,G]!fermata![D,D] | [C,,C,][F,A,CE] [F,,,F,,][F,A,CE] | %67
 [D,,D,][D,^F,A,C] [^F,,,^F,,][D,F,A,C] | [G,,,G,,][D,G,B,] [D,,D,][D,G,B,] | %69
 [B,,,B,,][F,B,D] [G,,,G,,][F,G,=B,D] | [C,,C,][G,B,=E] [=E,,=E,][G,B,CE] | %71
 [G,,,F,,][F,A,CE] [A,,,A,,][F,A,CE] | [D,D][C,B,][F,,F,][D,,D,] | [B,,,B,,] z [B,,,B,,] z |] %74
V:4
 x4 | x4 | x4 | x4 |: x4 | x4 | x4 | x4 | x4 | x4 | x4 | x4 | x4 | x4 | x4 | x4 | x4 | x4 |1 x4 | %19
 x4 :|2 x4 | x4 || x4 |: x4 | x4 | x4 | x4 | x4 | x4 | x4 | x4 | x4 | x4 | x4 | x4 | x4 | x4 |1 %37
 x4 | x4 :|2 x4 | x4 ||[K:Bb] x4 | x4 | x4 | x4 | x4 | x4 | x4 | x4 | x4 | x4 | x4 | [A,,,A,,]4 | %53
 x2[K:treble] x2 |[K:bass] x2[K:treble] x2 |[K:bass] x2[K:treble] x2 |[K:bass] x4 :| x4 | x4 | x4 | %60
 x4 | x4 | x4 | x4 | x4 | x4 | x4 | x4 | x4 | x4 | x4 | x4 | x4 | x4 |] %74

